Flat-Remix-Dark/apps/scalable/musique.svg

<svg xmlns="http://www.w3.org/2000/svg" xmlns:xlink="http://www.w3.org/1999/xlink" width="384pt" height="384pt" version="1.1" viewBox="0 0 384 384">
 <defs>
  <filter id="alpha" width="100%" height="100%" x="0%" y="0%" filterUnits="objectBoundingBox">
   <feColorMatrix in="SourceGraphic" type="matrix" values="0 0 0 0 1 0 0 0 0 1 0 0 0 0 1 0 0 0 1 0"/>
  </filter>
  <mask id="mask0">
   <g filter="url(#alpha)">
    <rect width="384" height="384" x="0" y="0" style="fill:rgb(0%,0%,0%);fill-opacity:0.301961"/>
   </g>
  </mask>
  <clipPath id="clip1">
   <rect width="384" height="384" x="0" y="0"/>
  </clipPath>
  <g id="surface5" clip-path="url(#clip1)">
   <path style="fill:rgb(0%,0%,0%)" d="M 295.808594 81.644531 L 153.066406 112.921875 L 153.066406 120.421875 L 295.808594 89.144531 Z M 347.667969 275.285156 C 346.949219 293.867188 334.734375 313.238281 314.261719 324.84375 C 285.105469 341.363281 250.328125 335.847656 236.519531 312.527344 C 233.375 307.191406 231.617188 301.375 231.101562 295.390625 C 230.382812 303.988281 232.070312 312.480469 236.519531 320.027344 C 250.328125 343.347656 285.105469 348.863281 314.261719 332.34375 C 334.734375 320.738281 346.949219 301.367188 347.667969 282.785156 L 347.71875 282.785156 L 347.71875 275.285156 Z M 153.023438 290.859375 C 153.757812 310.414062 141.367188 331.429688 119.648438 343.726562 C 90.464844 360.246094 55.636719 354.730469 41.878906 331.410156 C 38.730469 326.074219 36.972656 320.257812 36.457031 314.273438 C 35.738281 322.871094 37.425781 331.363281 41.878906 338.910156 C 55.636719 362.230469 90.464844 367.746094 119.648438 351.226562 C 141.367188 338.929688 153.757812 317.914062 153.023438 298.359375 L 153.066406 298.359375 L 153.066406 290.859375 Z M 153.023438 290.859375"/>
  </g>
  <mask id="mask1">
   <g filter="url(#alpha)">
    <rect width="384" height="384" x="0" y="0" style="fill:rgb(0%,0%,0%);fill-opacity:0.301961"/>
   </g>
  </mask>
  <clipPath id="clip2">
   <rect width="384" height="384" x="0" y="0"/>
  </clipPath>
  <g id="surface8" clip-path="url(#clip2)">
   <path style="fill:rgb(100%,100%,100%)" d="M 347.691406 23.25 C 267.484375 41.625 181.253906 60.054688 101.160156 78.910156 L 101.160156 86.410156 C 181.253906 67.554688 267.484375 49.125 347.691406 30.75 Z M 295.808594 238.441406 C 285.398438 239.015625 274.546875 242.082031 264.378906 247.839844 C 241.898438 260.585938 229.367188 282.730469 231.101562 302.890625 C 232.601562 284.929688 244.660156 266.519531 264.378906 255.339844 C 274.546875 249.582031 285.398438 246.515625 295.808594 245.941406 Z M 101.160156 257.328125 C 90.769531 257.914062 79.933594 260.980469 69.769531 266.71875 C 47.265625 279.46875 34.71875 301.613281 36.457031 321.773438 C 37.957031 303.8125 50.027344 285.402344 69.769531 274.21875 C 79.933594 268.480469 90.769531 265.414062 101.160156 264.828125 Z M 101.160156 257.328125"/>
  </g>
 </defs>
 <g transform="matrix(0.83006177,0,0,1,32.628162,-3.7072978e-4)">
  <path style="fill:#4aaee6" d="M 347.69141,23.25 C 267.48047,41.625 181.25,60.050781 101.16016,78.90625 v 219.45312 h 51.90625 V 120.42188 L 295.80859,89.144531 V 282.78516 h 51.91016"/>
  <path style="fill:#4aaee6" d="m 147.44531,279.08594 c 13.75781,23.32031 1.40235,55.60547 -27.79297,72.14062 -29.187496,16.51953 -64.015621,11.00391 -77.773434,-12.3164 -13.753906,-23.32032 -1.296875,-55.65625 27.886719,-72.1875 29.1875,-16.48438 63.925785,-11.00782 77.679685,12.36328 m 0,0"/>
  <path style="fill:#4aaee6" d="m 342.125,260.20703 c 13.74219,23.32031 1.29687,55.60547 -27.86328,72.13672 -29.15625,16.51953 -63.9336,11.00391 -77.74219,-12.3125 -13.74219,-23.32031 -1.29687,-55.66016 27.85938,-72.19141 29.16015,-16.51953 64.0039,-10.95312 77.74609,12.36719 m 0,0"/>
  <use width="100%" height="100%" x="0" y="0" mask="url(#mask0)" xlink:href="#surface5"/>
  <use width="100%" height="100%" x="0" y="0" mask="url(#mask1)" xlink:href="#surface8"/>
 </g>
</svg>

<svg xmlns="http://www.w3.org/2000/svg" xmlns:xlink="http://www.w3.org/1999/xlink" width="384pt" height="384pt" version="1.1" viewBox="0 0 384 384">
 <defs>
  <filter id="alpha" width="100%" height="100%" x="0%" y="0%" filterUnits="objectBoundingBox">
   <feColorMatrix in="SourceGraphic" type="matrix" values="0 0 0 0 1 0 0 0 0 1 0 0 0 0 1 0 0 0 1 0"/>
  </filter>
  <mask id="mask0">
   <g filter="url(#alpha)">
    <rect width="384" height="384" x="0" y="0" style="fill:rgb(0%,0%,0%);fill-opacity:0.301961"/>
   </g>
  </mask>
  <clipPath id="clip1">
   <rect width="384" height="384" x="0" y="0"/>
  </clipPath>
  <g id="surface5" clip-path="url(#clip1)">
   <path style="fill:rgb(0%,0%,0%)" d="M 295.808594 81.644531 L 153.066406 112.921875 L 153.066406 120.421875 L 295.808594 89.144531 Z M 347.667969 275.285156 C 346.949219 293.867188 334.734375 313.238281 314.261719 324.84375 C 285.105469 341.363281 250.328125 335.847656 236.519531 312.527344 C 233.375 307.191406 231.617188 301.375 231.101562 295.390625 C 230.382812 303.988281 232.070312 312.480469 236.519531 320.027344 C 250.328125 343.347656 285.105469 348.863281 314.261719 332.34375 C 334.734375 320.738281 346.949219 301.367188 347.667969 282.785156 L 347.71875 282.785156 L 347.71875 275.285156 Z M 153.023438 290.859375 C 153.757812 310.414062 141.367188 331.429688 119.648438 343.726562 C 90.464844 360.246094 55.636719 354.730469 41.878906 331.410156 C 38.730469 326.074219 36.972656 320.257812 36.457031 314.273438 C 35.738281 322.871094 37.425781 331.363281 41.878906 338.910156 C 55.636719 362.230469 90.464844 367.746094 119.648438 351.226562 C 141.367188 338.929688 153.757812 317.914062 153.023438 298.359375 L 153.066406 298.359375 L 153.066406 290.859375 Z M 153.023438 290.859375"/>
  </g>
  <mask id="mask1">
   <g filter="url(#alpha)">
    <rect width="384" height="384" x="0" y="0" style="fill:rgb(0%,0%,0%);fill-opacity:0.301961"/>
   </g>
  </mask>
  <clipPath id="clip2">
   <rect width="384" height="384" x="0" y="0"/>
  </clipPath>
  <g id="surface8" clip-path="url(#clip2)">
   <path style="fill:rgb(100%,100%,100%)" d="M 347.691406 23.25 C 267.484375 41.625 181.253906 60.054688 101.160156 78.910156 L 101.160156 86.410156 C 181.253906 67.554688 267.484375 49.125 347.691406 30.75 Z M 295.808594 238.441406 C 285.398438 239.015625 274.546875 242.082031 264.378906 247.839844 C 241.898438 260.585938 229.367188 282.730469 231.101562 302.890625 C 232.601562 284.929688 244.660156 266.519531 264.378906 255.339844 C 274.546875 249.582031 285.398438 246.515625 295.808594 245.941406 Z M 101.160156 257.328125 C 90.769531 257.914062 79.933594 260.980469 69.769531 266.71875 C 47.265625 279.46875 34.71875 301.613281 36.457031 321.773438 C 37.957031 303.8125 50.027344 285.402344 69.769531 274.21875 C 79.933594 268.480469 90.769531 265.414062 101.160156 264.828125 Z M 101.160156 257.328125"/>
  </g>
 </defs>
 <g>
  <path style="fill:rgb(29.019608%,68.235294%,90.980392%)" d="M 347.691406 23.25 C 267.480469 41.625 181.25 60.050781 101.160156 78.90625 L 101.160156 298.359375 L 153.066406 298.359375 L 153.066406 120.421875 L 295.808594 89.144531 L 295.808594 282.785156 L 347.71875 282.785156"/>
  <path style="fill:rgb(29.019608%,68.235294%,90.980392%)" d="M 147.445312 279.085938 C 161.203125 302.40625 148.847656 334.691406 119.652344 351.226562 C 90.464844 367.746094 55.636719 362.230469 41.878906 338.910156 C 28.125 315.589844 40.582031 283.253906 69.765625 266.722656 C 98.953125 250.238281 133.691406 255.714844 147.445312 279.085938 M 147.445312 279.085938"/>
  <path style="fill:rgb(29.019608%,68.235294%,90.980392%)" d="M 342.125 260.207031 C 355.867188 283.527344 343.421875 315.8125 314.261719 332.34375 C 285.105469 348.863281 250.328125 343.347656 236.519531 320.03125 C 222.777344 296.710938 235.222656 264.371094 264.378906 247.839844 C 293.539062 231.320312 328.382812 236.886719 342.125 260.207031 M 342.125 260.207031"/>
  <use mask="url(#mask0)" xlink:href="#surface5"/>
  <use mask="url(#mask1)" xlink:href="#surface8"/>
 </g>
</svg>
